X: 109
T:Saxaford
M:C
L:1/8
S:Tom Anderson
N:Brendan McGlinchey
K:C
[|D2 | C2 EC B,DGF| EccB cGEG | FAdF EGcG| FEDC B,G,A,B, |
C2 EC B,DGF | EccB cGEG | FAdc BGFD | DCCB, C2 |]
[| f2 | ge (3eee fd (3ddd | cedB cGEG | FAdF EGce | fedc defa | 
ge (3eee fd (3ddd | cedB cGEG | FAdF BAFD | DCCB, C2 |]
